X:1
T:Title
%%score { ( 1 4 ) | ( 2 3 ) }
L:1/8
M:4/4
K:Ab
V:1 treble nm="Grand Piano"
V:4 treble 
V:2 treble 
V:3 treble 
V:1
 z4 z2[Q:1/4=100] A>c | e>e e>f e>c [EA]>[EA] | B>A A>F [CE]2 [A,C]>[B,D] | %3
 [CE]>[CE] [EA]>B c>c B>A |[M:3/4] B6 |[M:1/4] A>c |[M:4/4] e>e e>f e>c [EA]>[EA] | %7
 B>A A>F [CE]2 [A,C]>[B,D] | [CE]>[CE] [EA]>[FB] c>A B>B |[M:3/4] [A,CA]6 |[M:1/4] c>d | %11
[M:4/4] e4- e>[_c=d] [=ce]>[_cd] | z2 [Ac]4 z2 | d6 z2 | [Bd]2 z z/ E/ E2 c>d | e6 z2 | %16
 [Ad]2 [Ad]4 z2 | [Ae]>[EAc] [EA]>[FAB] [EAc]>[CEA] [DEB]>[DEB] |[M:3/4] [CEA]6 |[M:1/4] c>d | %20
[M:4/4] e4- e>[_c=d] [=ce]>[_cd] | z2 [Ac]4 z2 | d6 z2 | [Bd]2 z z/ E/ E2 c>d | e6 z2 | %25
 [Ad]2 [Ad]4 z2 | [Ae]>[EAc] [EA]>[FAB] [EAc]>[CEA] [DEB]>[DEB] |[M:3/4] [CEA]6 |] %28
V:2
 z4 z2 [A,C]>[A,E] | [A,CA]>[A,CA] [A,CA]>[A,DA] [A,CA]>[K:bass][A,E] [C,A,]>[C,A,] | %2
 [D,F,D]>[D,F,D] [D,F,D]>[D,A,D] [A,,A,]2 [A,,E,]>[A,,E,] | %3
 [A,,A,]>[A,,A,] [C,A,]>[E,G,E] [A,E]>[A,E] [G,B,E]>[F,B,=D] |[M:3/4] [E,G,E]6 | %5
[M:1/4][K:treble] [A,C]>[A,E] | %6
[M:4/4] [A,CA]>[A,CA] [A,CA]>[A,DA] [A,CA]>[K:bass][A,E] [C,A,]>[C,A,] | %7
 [D,F,D]>[D,F,D] [D,F,D]>[D,A,D] [A,,A,]2 [A,,E,]>[A,,E,] | %8
 [A,,A,]>[A,,A,] [C,A,]>[D,A,] [E,A,E]>[E,A,C] [E,G,D]>[E,G,D] |[M:3/4] A,,6 | %10
[M:1/4][K:treble] A>B |[M:4/4] c6[K:bass] z2 | A,>A, A,>A, A,2[K:treble] G>A | B6[K:bass] z2 | %14
 [E,E]>[E,E] [E,E]>E, E,2[K:treble] A>B | c6[K:bass] z2 | D,>D, D,>D, D,2 [D,D]>[D,D] | %17
 [A,C]>A, C,>D, E,>E, E,>E, |[M:3/4] A,,6 |[M:1/4][K:treble] A>B |[M:4/4] c6[K:bass] z2 | %21
 A,>A, A,>A, A,2[K:treble] G>A | B6[K:bass] z2 | [E,E]>[E,E] [E,E]>E, E,2[K:treble] A>B | %24
 c6[K:bass] z2 | D,>D, D,>D, D,2 [D,D]>[D,D] | [A,C]>A, C,>D, E,>E, E,>E, |[M:3/4] A,,6 |] %28
V:3
 x8 | x11/2[K:bass] x5/2 | x8 | x8 |[M:3/4] x6 |[M:1/4][K:treble] x2 |[M:4/4] x11/2[K:bass] x5/2 | %7
 x8 | x8 |[M:3/4] x6 |[M:1/4][K:treble] x2 |[M:4/4] z2 A,>A,[K:bass] A,>A, A,>A, | %12
 x6[K:treble] x2 | z2[K:bass] E,>E, E,>[E,E] [E,E]>[E,E] | x6[K:treble] x2 | %15
 z2 A,>A, A,>[A,EA][K:bass] (3[A,-C][A,D]A, | x8 | x8 |[M:3/4] x6 |[M:1/4][K:treble] x2 | %20
[M:4/4] z2 A,>A,[K:bass] A,>A, A,>A, | x6[K:treble] x2 | z2[K:bass] E,>E, E,>[E,E] [E,E]>[E,E] | %23
 x6[K:treble] x2 | z2 A,>A, A,>[A,EA][K:bass] (3[A,-C][A,D]A, | x8 | x8 |[M:3/4] x6 |] %28
V:4
 x8 | x8 | x8 | x8 |[M:3/4] x6 |[M:1/4] x2 |[M:4/4] x8 | x8 | x8 |[M:3/4] x6 |[M:1/4] x2 | %11
[M:4/4] x8 | [ce]2 z z/ C/ E2 B>c | z2 E>E E>[Ac] [Bd]>[Ac] | z2 [GB]4 z2 | %15
 z2 E>E E>c (3A-[AB][EAc] | F>F F>F F2 [Af]>[Af] | x8 |[M:3/4] x6 |[M:1/4] x2 |[M:4/4] x8 | %21
 [ce]2 z z/ C/ E2 B>c | z2 E>E E>[Ac] [Bd]>[Ac] | z2 [GB]4 z2 | z2 E>E E>c (3A-[AB][EAc] | %25
 F>F F>F F2 [Af]>[Af] | x8 |[M:3/4] x6 |] %28

